X: 0
T: Gloria In Excelsis
Z: T. Tertius Noble
Z: Copyright © 2003 by Douglas D. Anderson
Z: Released To The Public Domain
L: 1/4
M: 4/4
Q: 1/4=90
V: P1 name="Staff"
%%MIDI program 1 19
K: F
[V: P1]  F | (c/d/) c A F | c3/ d/ c A | d (c/B/) A c | G3 C | (F/G/) A B (c/d/) | _e2 d =e | f d =B B | c3 F | (d/c/) B (c/B/) A | (B c/d/) _e d | c A c d | G3 F | (G/A/) B A c | _e2 d B | A F (B/A/) G | F3|]
w: O bless-_ ed town of Beth- le hem, With- in thy_ gray green shade, Ringed round_ with ter- raced_ vine- yard, And depth of ol- ive glade. There on_ thy high_ green pas-__ tures, The shep- herds watch their sheep, The low_ large moon shines glim- 'ring O'er all the up-_ land steep.

